/* XPM */
static const char *green_brick[] = {
/* columns rows colors chars-per-pixel */
"64 64 154 2 ",
"   c #3B3E35",
".  c #393F38",
"X  c #423F2E",
"o  c #3E4137",
"O  c #3D4139",
"+  c #454436",
"@  c #4A4735",
"#  c #4D4936",
"$  c #454639",
"%  c #484738",
"&  c #47483B",
"*  c #4C4B3A",
"=  c #544D35",
"-  c #594E34",
";  c #524E3A",
":  c #584F39",
">  c #565036",
",  c #5B5236",
"<  c #56513B",
"1  c #5A5239",
"2  c #5D5338",
"3  c #5C5239",
"4  c #5C5339",
"5  c #5E5338",
"6  c #5B543A",
"7  c #5B553A",
"8  c #5A543B",
"9  c #5C5438",
"0  c #5D5438",
"q  c #5D5538",
"w  c #5C5439",
"e  c #5D5439",
"r  c #5D5539",
"t  c #5F5438",
"y  c #5E5539",
"u  c #5E5538",
"i  c #5F5638",
"p  c #5F5639",
"a  c #5C553A",
"s  c #5D553A",
"d  c #5C543B",
"f  c #5D553B",
"g  c #5C553B",
"h  c #5E563A",
"j  c #5F563A",
"k  c #5E563B",
"l  c #5E573B",
"z  c #59533C",
"x  c #58533C",
"c  c #5B553C",
"v  c #5A543D",
"b  c #5A553F",
"n  c #5B553F",
"m  c #5B563E",
"M  c #5C543C",
"N  c #5D563C",
"B  c #5D563D",
"V  c #5F573C",
"C  c #5F563D",
"Z  c #5C563E",
"A  c #5F573E",
"S  c #5E573F",
"D  c #5B543A",
"F  c #5E583D",
"G  c #5E583E",
"H  c #5E593D",
"J  c #625536",
"K  c #645837",
"L  c #605538",
"P  c #60573A",
"I  c #61573B",
"U  c #61563A",
"Y  c #625A3B",
"T  c #62593E",
"R  c #615A3F",
"E  c #635A3E",
"W  c #635A3D",
"Q  c #695E3E",
"!  c #6B613D",
"~  c #414640",
"^  c #434840",
"/  c #444A43",
"(  c #494D44",
")  c #494D45",
"_  c #484E47",
"`  c #4B4F46",
"'  c #4D4E41",
"]  c #4E5044",
"[  c #4F5043",
"{  c #4E544D",
"}  c #4F5248",
"|  c #525243",
" . c #575441",
".. c #575443",
"X. c #515245",
"o. c #505347",
"O. c #545445",
"+. c #575645",
"@. c #545547",
"#. c #555342",
"$. c #5B5741",
"%. c #5B5640",
"&. c #5C5742",
"*. c #585747",
"=. c #5A5641",
"-. c #5F5840",
";. c #5F5941",
":. c #5F5943",
">. c #5E5A43",
",. c #5B5845",
"<. c #5F5A44",
"1. c #5D5946",
"2. c #5C5947",
"3. c #5D5942",
"4. c #54564A",
"5. c #57594C",
"6. c #5A594A",
"7. c #5D5B4B",
"8. c #585A4E",
"9. c #5C5B4A",
"0. c #555A51",
"q. c #545A53",
"w. c #5C5E53",
"e. c #5E5F53",
"r. c #5D5E52",
"t. c #615740",
"y. c #635A40",
"u. c #615B42",
"i. c #635C42",
"p. c #695F42",
"a. c #625F4B",
"s. c #615E50",
"d. c #5F6051",
"f. c #5F6155",
"g. c #5F6156",
"h. c #5F635A",
"j. c #666044",
"k. c #6B6244",
"l. c #66614B",
"z. c #6A6449",
"x. c #6C684D",
"c. c #706645",
"v. c #716847",
"b. c #716749",
"n. c #736A4B",
"m. c #606256",
"M. c #646353",
"N. c #696652",
"B. c #6E6B55",
"V. c #63655A",
"C. c #67695D",
"Z. c #696A5D",
"A. c #726D54",
"S. c #6C6C60",
/* pixels */
"& & & & & * $ . . O & $ ( ( $ O O . . ~ O q.{ $ O O O O $ O . ^ 8.7.m.f.| + & @.@.* = = @ + / (   O @ + # * ` [ * X.d.r.h.q.r.@.",
"+ ; = < = = = @ # = = # ; <.#.< ; * * * @ <.<.; ; # # # = # = X.| w &.=.= = = < < < = = = = ; < = ; 4 = = = m 4 = m >.<.=.< m # ",
"+ : , 4 = = = = = , = = 4 S F S 4 1 4 = = , L , , 1 F 4 , , w @.#.R S 1 > w , > = w = # , w w , w R w w : = , = = : : 4 S w , @ ",
"+ , w 4 , = = = , , , 4 S S z z z < = = = w w w 4 4 m S 4 w 4 6.*.>.u.>.>.4 < = > w w > = = 4 w F R u.4 w : , 4 , = = 4 L L 4 @ ",
"& 1 w 4 = = = , 4 , : = = : 4 4 4 = = = = 9 , , , 1 R w w w 4 * < w m >.m m 4 = = , w , = - , 9 , w 4 : : , , 4 9 = = > w w 4 @ ",
"* m a.>.1 < : 4 1 4 = = = = 4 > 4 4 4 , : 9 - : Y Y w 4 w w 4 * ; 4 1 4 = < 4 S = = 4 4 , w L w w w , = = , w w w > > 1 w 4 > @ ",
"* S a.i.1 < = < S < = = 4 = 4 < 4 4 4 4 , , , = = , 9 w Y w 4 * * < < 4 < = = < = , = 1 1 , , , 1 F z w , , 4 w 1 < 4 1 F 1 < # ",
"; p.p.j.u.1 < 4 = 4 = < = = 4 < m S S w , , 9 - = , w R Y w R * * m > 4 w , = = , w , , 9 w w w w S 4 4 4 , , = w w w 1 1 w F * ",
"#.z.j.z.z.F < 4 , , , = < : : < m S , = , 9 Y 9 , , 9 W 9 , R ; * S = < l > = > w L w , = , R w 4 1 1 w 4 w , , w w l R F w u.< ",
"N.z.c.n.n.k.R u.u.p.p.p.i.u.a.u.i.p.R Q Q k.k.k.Q p.z.k.z.k.b.m < k.p.k.k.z.p.k.z.c.c.z.k.R i.i.k.k.p.z.p.p.p.W R F p.z.v.z.z.<.",
"Z.a.a.a.< * ; #.| ; * * * * * ; *.M.<.< m x < ; : 4 4 : < <.< # * ; < < ; ; * * ; =.,.l.M.7.,.&.m <.a.u.=.< < < < < * * < < #.C.",
"V.M.7.<.; ; =.*.@.* % & & & * * 5.M.,.x * * * * * * < =.a.7.@ # ; < | #.* + @ % * ; ; #.6.s.a.#.#.M.N.j.* ; < * * * & | #.* * r.",
">.u.p.p.u.>.4 S u.4 = = : ; S < @.u.F w < m m x < < j.z.x.a.S 4 1 u.p.W F < = 4 S 4 , , S S a.*.#.x.j.F 1 m m x < < >.u.j.S S >.",
">.j.j.p.R w w p.u.1 4 1 F 1 T ; + m 1 1 1 F u.F Y , R W k.a.w 1 1 W j.W Y 1 , Y R w w w p.u.p.=.* >.a.>.Z F W m 1 4 1 Y W w 1 F ",
"F u.u.W w 9 R u.4 , 4 4 m < m * * S 1 1 1 1 w , , , Y W R l 9 , w l l W w 9 Y Y 4 w w w R u.p.=.< S 1 <.>.Z 1 , , 9 Y W Y 9 , 1 ",
", R F 1 4 , , = = = < < 1 < 4 + * u.< 1 , = = = = , 1 Y 9 , 9 , , l 1 w L 9 9 : , , w Y R R u.; < u.1 $.>.< > = = 9 9 K 9 , 9 , ",
", S S = = = = 4 < = < = = = 4 * 6.j.1 , , , = = - - , J , L , , , w 4 , - = , , , > w , , = F ; ; W , : z 1 : - - - , , , , , 4 ",
"S S S = # = , , = < < = = # < X.V.k.w , , - - - - , , K Y p.W w , , , - = - , , = 9 w , = = S ; < Y - = = = = , , - , L K T L S ",
"R W i.u.S , , : 4 1 w 4 4 = m | l.p.S - , , J , - , J J W p.p.L 9 L , , , , , : L W W Y w 4 R # = W = = : = 4 T L w w J K u.R W ",
"R y.k.z.p.W R R R F R 1 S F u.* < p.W Y L L L , = - J J W p.W L L L L Y L Y Q Q ! ! ! W W W z.= = k.J L T 4 T y.W T L J L p.y.y.",
"R u.z.z.p.y.u.u.S R F >.i.u.k.; ; p.Q W L T T 4 : L W W i.i.p.p.T w R T w T W Q Y W Q p.z.k.k.* = p.W W T y.t.y.u.u.T y.z.a.i.i.",
"4.5.r.X.4.r.| ' & # + + & & + & * # @ * % @ ; * ; < : : 7.M.7.#.* % & & & & * * # , : = # * @ & & + @ @ 8.S.M.7.; * + * m.Z.V.m.",
"7.a.l.<.| 6.#.< ; & < =.,.#.< < =.a.a.z.=.m >.a.a.i.u.u.u.<.u.* * <.*.,.7.=.< : 4 R w 4 4 m m < < < m < =.B.z.i.>.< ; ; #.l.N.m.",
"6.u.a.$.< x x x < > F F W w , > > F u.R R , = S u.w , , w , S &.< S S u.4 = = = = = = = > , w , , w w = = = , = , , 4 < 4 m a.M.",
"6.>.=.m x <.$.< 1 , 4 4 1 4 > ; < m F W l w Y p.p.R R R k.R p.< # w w S 4 = = = , , = w 1 F F 1 4 w = = < w w , > 1 F a.<.>.>.@.",
"@.>.< x < x < = = , w 1 > > > > < 1 1 F w w p.p.S R R R W l W < ; 1 w w > = = , w , , , : 4 4 , 4 : = = = 4 , = = 1 a.i.=.x =.* ",
"* $.< : = = = = = = = , = = > > = 1 1 4 , S u.S 1 w w w Y w R ; * , 1 w 4 > , w 4 w , = = , w w w w 9 , = 4 = = R F F < < < m | ",
"< m = = = > = = = = = , = > > = = < < = = 4 u.u.S w l 4 , = L ; # 1 F W Z 1 > 1 F 1 , = 4 4 R F w 4 4 , , = < < < 4 = = < = < #.",
"; w = = = = = = = = = 4 4 w 4 = > 4 m m = > S w , Y Y 1 9 > R = < R Y R w w 1 1 4 4 > m S 1 u.u.S 4 1 1 < > 4 = = = < < < < m < ",
"< w = = = = 4 , > = = = , 4 , = > 1 w w 4 , 9 L W W Y l Y L R > 1 k.W W F F l w , 4 4 m m w F F F m < = = , 1 > = = > S = = >.<.",
"< I , : = , L , , = : = : , , , , L Y Y Y R W Q Q Y Y l W Q p.4 F k.W k.j.W w w w w w S W w R F R S = 9 9 Y Y Y w w W R w 4 R 7.",
"% : = # @ # : u.< : : = # @ # < 4 < 4 : < z >.a.F u.m < m S S < x 1 l R F 1 = > m m S 1 x m u.>.>.m < w 1 S m m S m =.m < $.z.#.",
"$ + + * & O ( } 5.,.; * $ $ & & & & @ @ & * ' 4.*.M.* + + # # < = # # # ; # # = * * = ; #.< 4 * [ ,.< = : * & * < * | ' o.V.Z.8.",
"= # ; : ; @ + # ; < < = ; ; 4 * + 4 , , = : = = 4 S < = , w I L , - - - - - - - = = , R p.4 , # = L , , , , z >.1 4 S u.<.x.l.&.",
", > < = # # # # < = = = = = 1 + + 4 = = = = = = = = 4 w J K I J - , , J J J , - - , J W W 9 L > = , : : = = 4 S S 1 R u.R j.z.S ",
"4 w : = = # ; < < > 9 = = = < + % 4 = = # = , = , 4 = , J I K J J K J J , , J , - - , Y ! J L ; ; L = = = = , S 1 =.z.a.u.a.a.F ",
"w 4 : : : = < < < = > = , , 4 & * L , = = , , = = = , , , J K K K J , , , , , , , - = : , 9 W * * w # = = 4 4 4 4 >.>.>.m S i.u.",
"L , : 4 = ; =.< = = < : , 4 T * : Q J 4 4 4 > = = = , , , - J Y K J , , , , , , , = , - = = W * * R = = = : = , , z < > = = 1 S ",
", 4 , , = z <.=.; ; =.; = = w * # Y , w m < , , = = = , , - K , , , = , , , , , , , J - = : p.* * W 9 L w = - , , 4 = = = = , w ",
"w S z S S z =.=.=.< z ; # = z * * W L w 1 4 < 4 = = = = - , L 9 , , , , , , , 9 J , , - 4 w k.6.; Y J ! Y , - = = 4 4 = < , J , ",
"u.p.&.u.S T m #.< z : = = = M + * p.S 4 , 4 &.1 = # # = : , , , , w 9 , , , , , 9 , , , 4 L p.9.4 Y , K K 9 , 4 4 M 4 = : - = : ",
"S S &.u.>.< >.<.z &.S S u.&.u.& ; n.z.k.y.p.i.R w < 4 L w L 4 4 p.k.k.k.k.p.p.z.c.z.k.z.k.k.z.<.< R R p.W u.>.i.p.z.u.S T T w R ",
"# + + + * * * * + + * + + + + + & a.M.=.< < =.<.< = 4 > 4 < = = < ; = = = < 4 < 4 z =.>.=.z z * * #.@.* * * * ; *.#.* # # = = = ",
"# ; * ; # * ; * * * * * ; ; < < < a.N.>.&.>.a.a.1 Y R S u.u.W = ; >.u.k.p.j.k.k.z.z.i.i.u.>.z z =.#.; ; ; : * * ; &.z : z R p., ",
"# R , 4 , , 4 , = = = = , w , 4 w R p.p.W p.p.W Q W W Y W W W = = p.W Q W ! ! c.! k.W R Y L w 4 4 w w w , , : , w Y w w L L k.> ",
"# S = = : = , , = = = , , , , , 4 a.u.w w L , , w W W Y w F R * * R 9 L Y W W Y , , , = , , 1 4 , , , J , , , , J K , , - = W * ",
"* w = = = = = = = = = 9 J 9 , = < R S , = , , = = w R 1 , 4 u.X.* w = , , Y 9 , , = = = = , w , , , J K J , , , J J , , = = w * ",
"* >.= = = > = = = = = , : , , > = w m 4 > = = , , 4 w , w 4 4 | * w = , , w , , , = = = = w w = = , , , , , - - - , 9 , = > >.* ",
"< u.< < 4 = = > = = 1 w > = > > m m 1 1 1 , , , = < w R R w w + @ w w Y Y w 9 , , , 9 w l l Y , , , , w Y Y 9 , , = > , 1 1 u.x ",
"* u.< x 1 1 m 1 > < u.p.R 1 1 m Z 1 < m 1 , 1 Y , 4 w w W w w @ # R Y W Y Y J 9 Y Y 9 l W Y l w , , l W W W w 9 , < 1 1 >.Z >.< ",
"# u.m < x F ;.Z m m u.j.z.>.>.>.1 Z m m 1 < = w R 1 4 1 p.w w * : W Y k.Y w Y R Y , w Y W W W w 9 , l W W L , F F Z $.$.>.<.>.# ",
"; j.>.Z x >.>.Z < =.z.a.a.<.$.< < m $.>.Z ; # , w = = = , = 4 * ; R , w 4 4 4 R w = 1 W j.j.W w 9 w F j.k.p.> < m m >.m F u.j.< ",
"; u.j.j.x <.<.#.< ; ; ; < * * * * < < $.< # # = = = = = = = : + * T 4 S 4 4 4 4 : : = < u.m m < = @ < m z < # ; < m &.< u.>.F < ",
"& & * * ; #.< & & & +   o o O $ + + o & 4.( & + & & + + & & @ $ X.9.@.*.>.4 : , # = @.[ * * * # # # < =.=.4 w > < * * * ; ; * & ",
": =.m &.T u.m : ; ; : ; ; ; z & * =.< <.,.a.a.>.a.>.m m < ; < < =.l.a.a.p.p.j.p.i.i.A.B.x.p.k.F < z.b.n.z.k.! Q p.m S T S R S ; ",
"- : = = = - = = : , = : : = w * * S < 4 F , w w R w , , = = 1 1 4 4 < < = , , , R j.k.z.W W Q z < W Y K Y W W Q K L L J , 9 9 , ",
", = = , , = = = = , = = = = w & * m < m m < = > m u.1 , 4 1 4 4 1 4 = = < , , 4 R j.i.a.u.W W < = Y , 9 F R w : - , , = = , w , ",
"> = , , , = = = = = = = = = 1 * * : ; < < > > < m S < < < < > < 4 m : < = = 4 S S m >.F u.R , # = w = 4 m 1 > = , , = = = > > = ",
"= = = = , = = = = = = = = < Z & * < < < = 4 4 S < 4 4 = = 4 4 < 4 4 4 = = , w w w 4 4 w F w , @ # w 4 w 4 4 , , , , = > > < 4 = ",
"> > > 1 w 1 , = > = = < m < >.& & z : 1 F m 4 = = = = = = : S 4 < 4 4 : 4 4 w w 4 = = , w w , @ @ w w R 1 w L , J w w w R w 1 < ",
", , 1 W k.R > 4 < m x < $.>.m & & < z =.m : < = = = < = = : S u.S R S 4 T , 4 4 , = = T L w , @ * S R p.w S R R Q W l Y W w w 1 ",
"w 1 1 p.j.u.4 x < x x < $.>.Z & * 4 z m ; < = = = > = # = 4 m >.z.z.>.S 4 = : = = = = 4 w w , # * w 4 R 4 1 R p.R S S W R u.H 1 ",
"> > w p.W F # # = < < # m m F * * 1 : 4 = # = 1 4 = = = = 4 < m i.z.a.4 = , 4 = = , 4 w L w R * # w = : = , , 9 : = = l u.u.R 4 ",
"@ X # # # @ # # * * ; # m 1 < & + = @ ; # # # # : # # # # # # ; u.u.l.<.: 4 4 < < 1 4 w 4 z =.& + = = = # = = = @ # < < <.=.#.< "
};
