/* XPM */
static const char *red_brick[] = {
/* columns rows colors chars-per-pixel */
"64 64 206 2 ",
"   c #7E3D25",
".  c #7F503D",
"X  c #774A37",
"o  c #7B5443",
"O  c #7E5B4C",
"+  c #7E5847",
"@  c #7E5E50",
"#  c #8D2F0D",
"$  c #972A03",
"%  c #9B350E",
"&  c #8E3514",
"*  c #9B3914",
"=  c #933E1C",
"-  c #993F1B",
";  c #A33D14",
":  c #A93D13",
">  c #A73A0F",
",  c #8A3E22",
"<  c #923E20",
"1  c #9D411C",
"2  c #A64017",
"3  c #AA4117",
"4  c #A4421B",
"5  c #AB451B",
"6  c #B34316",
"7  c #B2471B",
"8  c #B3491E",
"9  c #BD4C1E",
"0  c #8E4325",
"q  c #8D482D",
"w  c #85462D",
"e  c #944323",
"r  c #9B4624",
"t  c #9C4827",
"y  c #954A2C",
"u  c #9C4C2C",
"i  c #964827",
"p  c #844C36",
"a  c #8C4D33",
"s  c #844F39",
"d  c #934E32",
"f  c #9B4F30",
"g  c #85523D",
"h  c #8C533C",
"j  c #955236",
"k  c #9C5234",
"l  c #93553B",
"z  c #9B563A",
"x  c #96583F",
"c  c #9C593D",
"v  c #A34722",
"b  c #A94720",
"n  c #A44A25",
"m  c #AC4B24",
"M  c #A44D2A",
"N  c #AB4E29",
"B  c #B34D23",
"V  c #BB4F23",
"C  c #A4512F",
"Z  c #AC522D",
"A  c #B55026",
"S  c #BB5125",
"D  c #B3532C",
"F  c #BB542B",
"G  c #BD582F",
"H  c #A35434",
"J  c #AB5633",
"K  c #AB5836",
"L  c #A25739",
"P  c #A35B3C",
"I  c #AB5C3B",
"U  c #A75837",
"Y  c #B45630",
"T  c #B45A35",
"R  c #BB5B34",
"E  c #B25D3B",
"W  c #BA5F39",
"Q  c #B5613E",
"!  c #BC623C",
"~  c #C14E20",
"^  c #C1562A",
"/  c #C35A2F",
"(  c #C65628",
")  c #C35D34",
"_  c #CA5E33",
"`  c #C46037",
"'  c #CA6136",
"]  c #C3633B",
"[  c #CA653B",
"{  c #CD693F",
"}  c #D26335",
"|  c #D4693D",
" . c #D8693C",
".. c #845642",
"X. c #8B5741",
"o. c #865946",
"O. c #8C5A45",
"+. c #845D4B",
"@. c #8C5D4A",
"#. c #905740",
"$. c #935C44",
"%. c #9B5D43",
"&. c #925F49",
"*. c #995F48",
"=. c #825F50",
"-. c #A25E42",
";. c #A95F41",
":. c #86604F",
">. c #8C614E",
",. c #9E6046",
"<. c #94624C",
"1. c #9B634C",
"2. c #846353",
"3. c #8C6453",
"4. c #8E6857",
"5. c #886758",
"6. c #86695C",
"7. c #8C6A5B",
"8. c #936652",
"9. c #9A6750",
"0. c #946956",
"q. c #9B6954",
"w. c #936C5A",
"e. c #9A6E5A",
"r. c #96705F",
"t. c #9D715D",
"y. c #A56145",
"u. c #AC6244",
"i. c #A3654A",
"p. c #AB6649",
"a. c #A4684F",
"s. c #AC694E",
"d. c #B36444",
"f. c #BB6642",
"g. c #BC6946",
"h. c #B06749",
"j. c #B46B4C",
"k. c #BB6C4B",
"l. c #BF704F",
"z. c #A46C54",
"x. c #AB6D52",
"c. c #A26F59",
"v. c #B36E52",
"b. c #BA6F50",
"n. c #AC7057",
"m. c #A4725C",
"M. c #AB735B",
"N. c #B47155",
"B. c #BB7354",
"V. c #B3755B",
"C. c #BB7659",
"Z. c #B5785F",
"A. c #BB795D",
"S. c #8D6F61",
"D. c #947262",
"F. c #9B7362",
"G. c #9F7867",
"H. c #A27562",
"J. c #AB7760",
"K. c #A57865",
"L. c #AC7963",
"P. c #AB7D69",
"I. c #B47B62",
"U. c #BB7C62",
"Y. c #C26641",
"T. c #C46A45",
"R. c #CB6B44",
"E. c #C36E4B",
"W. c #CA6F49",
"Q. c #D36D44",
"!. c #D96F44",
"~. c #C4714F",
"^. c #CC724D",
"/. c #DC7246",
"(. c #D4734B",
"). c #DC764C",
"_. c #C37453",
"`. c #CA7552",
"'. c #CB7856",
"]. c #C17758",
"[. c #C37A5C",
"{. c #CB7C5C",
"}. c #D27651",
"|. c #D47A55",
" X c #DB7B54",
".X c #D37E5B",
"XX c #E37649",
"oX c #E47649",
"OX c #F17F4F",
"+X c #E37D53",
"@X c #E87D51",
"#X c #C37E61",
"$X c #C87F60",
"%X c #BE836A",
"&X c #B68169",
"*X c #A68170",
"=X c #CD805F",
"-X c #D3805D",
";X c #DD835E",
":X c #E3845C",
">X c #EA8459",
",X c #F98B5E",
"<X c #CC8262",
"1X c #C38266",
"2X c #D38564",
"3X c #E78962",
/* pixels */
"q.&.<.q.z.&.@.<.@.i I K $.j H H d.d.I E L $.u , u 3.1.z.z.1.$.x c $.e.P u.y.3.<.q.9.c.z.z.x.w.l U y h O.< e t C H P H 8.H.9.O.+.",
"i.u.I h.u.u.u.z &.A ) S z T _ F ^ ' Q.Q.] $.; * B 1.-.d.u.j.;.k H y.z.E.E.d.q.j.v.u.p.B.A.[.M.I ) B y a $ % 7 ^ S S 7 %.z.y.p.&.",
"<.i.1.&.i.x.i.$.3.E J N &.C.T.T K ! W.E.k.>.t C K 3.$.i.i.i.%.d l <.e.b.p.p.F.q.a.1.z.V.I.Z.w.V.`.K %.h # & C Q J M M g t.1.z.3.",
"&.@ + $.$.8.D.t.F.e.t.m.t.t.6.3.<.@.7.w.8.3.3.8.e.8.>.O g X.%.+.$.%.i.%.$.$.1.#.7.9.<.<.D.m.0.3.q.9.q.0.8.2.O.&.<.3.%.1.&...@.<.",
"E X.a t t P m.B.C.N.N.C.j.j.w.z.v.s.q.q.%.y.%.%.s.p.%...D m S l D S S G 4 2 8 b <.U I L c.-X-X]._.`.f.}.C.<.E E u.&.E I H i C h.",
"h.<.h y I %.e.A.Z.Z.Z.N.i.V.G.x.N.n.w.3.$.i.&.1.x.x.z.>.T J v h Q ` T R.R D m J <.z -.y.e.{.2X{.B._._.<XI.>.p.j.s.3.f H P P k P ",
"@.3.@.@.>.3.>.2.2.0.e.w.7.3.w.0.0.0.w.3.3.w.0.e.w.4.@.+.X.$.$.&.$.>.8.8.q.4.@.o.O <.@.>.3.3.w.w.0.8.D.e.&.O.$.<.<.e.@.2.+.3.3.2.",
"P P I P -.P U l $.I Q v.8.H I U I g.d.T <.p.(.3XN.z 5 1 1 D Y.R 5 o.8.y.i.8.$.z k P P k U -.3.%.y.-.8.! / R R ) ] [ I >.%.z %.3.",
"U U u.I I I d.i.i.E.g.j.<.U I u U I I f.q.]. X:XB.z ^ F m b D m B &.1.y.%.<.,.E u.u.I H I j.8.j y.h.0.W F F ) [ Q.Q.T @.c z c :.",
">.>.@.8.>.3.@.+.>.<.q.<.+.O.>...O.O.>.<.w.K.c.c.w.>.<.q.8.8.>.&.1.3.w.w.0.7.0.0.w.q.0.8.3.8.7.>.0.e.w.<.O.$.h h <.z.8.3.+.+.+.2.",
"j +.x %.$.>.M r t U J K W k p & e e o.%.i.%.$.&.%.$.@.K.1XU.m.t.h.u.k.u.L H u X.V.k.2XL.q.p.h.v.C.B.B.j.q.y.x j +.M.j.-.-.j.z j ",
"f o.P P P <.D 5 4 ) ] D G I a 4 b v &.p.u.p.P u.p.L $.L.$XB.z.&.W d.d.E J E Z &.].^.}.N.a.g._.{._.[.{._.q.I T T X.N.g.d.d.k.I u ",
"@.2.>.8.8.2.&.l a &.z.%.x O.@.x $.h 2.8.8.8.8.>.8.<.4.F.K.t.2.2.&.1.1.<.&.<.&.4.t.c.z.0.w.<.e.m.q.e.c.9.7.@.<.$.2.w.m.q.8.8.@.O.",
"$.1.<.*.%.%.1.6.m.I.M.D.c.i.%.%.l h x $.2.j.j.h.w.i.s.N.x.i.$.p.q.@.u y l @.t U P P I _.g.1.w.x.z.e.z.! I K K u.h.'.K.q.1.%.w.+.",
"P y.-.u.P z k @.P u._.m.c h.P k U H H z <.Y. X(.1.g.k.E.d.k.`.E.-.l D 1 n h 8 S ] ).[ R.[ y.q.j.j.M.B.OX).} ' !.XX,XV.-.u.E z.X.",
"<.<.<.<.&.@.O.2...@.c.D.@.$.&.&.<.$.%.@.w.s.n.x.w.<.<.1.1.q.z.x.q.@.c j h O d z z -.%.j.s.8.w.1.m.F.t._.$XB.v.C.[.$Xw.@.&.1.e.7.",
"D.w.8.<.7.0.x.z.z.i.,.%.a 2.K.m.m.F.8.,.l h x h ,.&.3.;.u.h.t.K.J.c.<.O.O.O...D.L.q.q.+.y P -.P z z P X.<.c y.,.@ O.$.$.1.$.1.m.",
"I.1.u.u.&.n.|.`.~.Y.! C - X.x.B.$XI.P Y W T T Z W f.&.[ R. .x.s.b.B.u.u H d.d m.2X[.N.&.> 7 9 S S 7 9 J u.) R.W X.I U U d.U h.-X",
"w.+.1.z.8.H.].].v.u.z P u.3.q.z.I.F.$.u.i.i.-.y.y.s.0.k.g.T.m.<.s.M.a.$.%.%.O.D.%XI.M.>.r n u i H Z M l &.d.d.k +.l x ,.s.x.x.Z.",
"3.>.@.8.e.q.4.2.@.8.w.3.h ..g $.<.9.&.>.c.x.i.q.t.V.9.1.O.1.q.c.w.o.@.O.2.M.x.x.i.%.h l p O g X.h O w.8.8.0.0.0.0.3.6.8.3.8.S.@.",
"h.-.P p.v.B.z.<.P u.i.1.D n D D W ] ] x ^.)./.b.v.(.!  X^.R. X:Xq.q u J $.}.oX[ S 3 ; 8 % h v Z v g i.p.p.v.v.N.j.x.0.u.c y.0.;.",
"v.s.p.N.A.j.<.0.p.a.q.<.Z E E.E.E K `.c.v.^. X1XM.^.E.`.{.`.`.|.w.%.P u.<.d.Q.R.N & v D * O.k I H o.&.p.z.x.x.A.N.c.t.x.i.a.7.x.",
"7.q.e.w.7.3.w.7.3.w.w.3.3.7.<.8.@.:.$.&.X.1.M.m.m.L.w.0.8.3.2.9.3.<...h o.X.>.w.8.9.0.o.s o.<.<...3.8.3.@.<.q.F.w.w.w.F.F.F.7.0.",
"8.d._._.0.z.U.i.,.i.y.-.<.q.-.P %.O.: 3 8 S _ _ @XU.O.c -.1.$.D D Z v v n 4 h A.B.B.M.l - M ! f.E W Z O.N 5 B i.M.s.i.V.C.C.C.p.",
"e.~._.'.0.z.V.i.s.x.x.i.O.8.y.,.y.O.: 3 B 8 ) ' oXv.g z p.1.1.R ! R.R.] ! D h z.u.d.m.p D T T W T.! J O.D m 3 l q.].j.N.A.A.<XB.",
"7.e.4.8.2.3.w.0.>.8.w.w.7.7.e.w.t.0.$.&.1.$.1.q.1.8.3.&.@.>.8.<.q.1.1.&.3.X.3.3.8.<.w.+.&.@.&.<.<.0.9.w.$.g $.>.+.w.e.w.t.r.w.t.",
"s.a.&.i.a.a.0.T.T ! z.C.d.P j.`.E.Y.h.P.[.N.A.0.H J T M n t N -.x m J u o.h.h.H u u u u X.s e y j $.I d.I H U k i ..j.E.E.n.<.p.",
"B.B.b.B.j.N.q.R.[ _ z.E.[ ] R.^.Y.R.g.z.~._._.M.D D ! Y W W ] u.z ~ S m X.! f.T m v M v h j Z D P $.T g.T.T.Z J W %.! ] R.C.1.k.",
"e.e.e.0.8.0.3.1.1.x w.m.x.a.z.M.M.M.m.F.M.L.J.D.i.i.x.i.i.i.&.@.+.x %.l 2.$.&.O.1.$.<.$.=.3.1.1.8.7.1.m.n.z.1.q.1.3.9.z.a.0.7.0.",
"8.M.M.w.@.l l x %.1.i.%.2.V.<Xh.O.K.A.U.L.L.I.n.>.7.i.%.x 7.%.v.Z.n.M.V.s.8.4.u.-.y.3.$.h a a %.,.i.e.O.u u k 3.l %.%.h h &.%.@.",
"%.A.[.m.$.! d.d.k.d.g.E &.f.R.[ -.L.=X{.V.U.N.B.v.8.K E J &.k W f.E..X`.-X<X1.).Y.(.c.H k U H H I E.x.y ; ; M @.U d.U M U I d.1.",
"3.0.m.F.0.i.1.1.x.z.1.X.5.1.y.h.8.G.I.L.L.K.t.M.c.7.1.z.i.2.O.l $.z.M.M.%X&Xr.1XZ.V.7.h $.<.1.1.i.i.e.@.-.j l 2.<.1.9.z.z.&.1.w.",
"X.X.z.9.M.F.w.1.c.K.+ z h.-.%.l x j @.#.x P q.X.k k d k U z q ..q   k <.9.P c -.u.v.p.q.e.;.z q 8.U.U.U.V.Z.U.V.q.>.k j y.5.X p ",
"t I g.h.d.x.n.E.g.[.. R [ ` ) D D 5 j u Z D l u.^ S 5 6 6 5 6 a 5 $ 6 y.u.[ ) F ) ).(.|.1.F F 4 i.[.{.`.p.y.I R.k.l ; 2 m O.0 e ",
"l -.%.l -.3.m.Z.s.L.O u H k I H J I <.&.;.I $.x.] ! H u J N n h u M r <.i.f.;.u.I Q f.{.>.U L r <.I.M.H.O o %.d.N.@.i y y +.j z ",
"$...o.+.X.$.X.&.&.o.+ >.3.z.m.m.D.9.@.o o.<.<.<.e.0.1.<.<.+.x $.%.<.h $.h +.I.V.x.0.+.9.q.X.O...+.0.w.h X.%.8.w.e.t.q.8.@.+.3.2.",
"Y ] ! ..N v 4 m D N Z z 9.(.(.T.q.! E H Q T Z ! 1.y.Y.f.u.h 5 R [ R m Z B l (.@XoXB.X.Z ! H I -.h w &.D | _ x 8.i.s.C.u.P y.i.g ",
"I K d.>.C Z n 1 M W T l 8.E U z <.E d.g.P P U U O.1.d.k.,.h n T Y Z J Z W <.~.3X:XC.1.K H I g.%.. g 2.W W.R $.2.q.M.V.x.%.y.&.o.",
"o.O.@.8.O.3...O.o 2.0.0.D.w.w.e.t.0.w.w.w.w.w.1.8.<...X.@.9.8.3.>.0.w.3.<.3.0.e.8.3.0.w.3.q.8.7.7.7.S.0.@.O.0.3.5.F.0.8.2.0.<.3.",
"J n T E.T @.l x h +.z.C.A.N.A.N.C.c.8.y.v.p.<.T Z n t r M Y.p.0.v.U.M.8.-.u.v.p.y.p.u.8.z.B.s.3.q.z v.'.Q I I Z $.C.p.d.8.y.W Z ",
"f.E I f.T O.j -.p.3.x.v.x.s.V.A.U.z.8.;.p.$.+.n 1 1 m n r D h.e.A.#XA.0.z -.x.v.j.-.P <.1.B.N.c.1.Y T.g.K J I W $.N.{._.1.P W E ",
"<.<.O.>.X.+.o.>.8.2.2.w.w.0.t.w.e.t.w.&.<.8.+.. @.<.<.$.@.O.8.7.e.0.e.7.>.3.&.<.@.3.q.0.3.e.m.0.e.q.0.&.@.3.+.g +.e.m.q.3.8.8.<.",
"m 4 t h M v Z f.J n M @.c.i.s.0.U (.T.D [ R N I 8.{.B.k.e.q.s.v.x.i.%.y.1.$.D Z N q.^.T.T.}.;X^.R.v.w.x.V.m.O.i M J f.Z n W X.q ",
") ~ i x ) W F ] D D m h s.[.C.8.I } ] Q./.A / ' z.`.E.^.z.i.B.].].j.P u.,.l / ' ] i.Q.).>X+XQ.)./.g.q.C.B.%.%.S A ) ] F m S c T ",
"i.P s 2.1.1.a.$.h $.h +.8.e.e.7.O.%.%.i.p.p.i.l w.M.9.M.r.e.t.q.t.0.9.<.>.>.y.s.z.3.v.U.#Xx.s.N.p.8.S.t.e.3.3.d h 1.1.1.&.1.e.8.",
"M.c.c.i.3.@.l h o.X.t t i u d.k..XH.x k z $.X.y C i U M J i o c q d @.s H h.u.k l u.j.0.u.u.z 3.e.m.c.q.9.M.M.+.w.n.U.M.D.J.M.e.",
"B.B.B.j.1.%.U I x l 5 b B ` (. X3XZ.U Z D x I } B 7 S 4 5 7 l t r N l < S W m B n D R.%.D T W 1.x.C.C.B.j.p.u.i.q.k.{.].e.j.j.N.",
"e.q.q.q.2.3.X.X.@.o.y k y.j.N.[.1Xt.$.x x >.1.d.k H z k j i o.X.%.y.3.#.z j a j x %.i.3.l z P w.e.q.q.q.q.@.>.e.w.M.M.9.S.L.J.m.",
"s.i.3.c c a d c %.-.1.3.X.X.8.2.h X.&.1.1.h h O 8.%.N.m.3.O.g X.<.$.X.$.=...i.U 8.F.<.&.<.<.X.$.1.7.9.<.<.6.@.$.$...@.q.<.@.e.C.",
"Q. X1.A ] _ B D R ) d.X.H H y.@.e H d.I I I H $.u.] T.j.$.M u f U U I E $.T.oX} -.V._.;.;.u.I I d.q.u.P c 3.h I h.I P u.I -.n.!.",
"d.j.1.I f.E u k U Q x.+.%.1.<.3.j j i.x %.s.y.@.&.I P i.+.l %.i.i.$.x i.4.[.'._.m.K.N.-.-.i.%.i.V.7.1.&.%.2.8.s.n.x.i.y.%.$.c.g.",
"0.3.0.8.w.1.1.%.3.<.9.<.h h &.O.@.@.j l l 2.O.<.1.9.>.>.<.0.3.1.1.e.3.h g $.h $.$.h o.w.3.<.3...$.1.n.N.%.x.A.D.3.3.8.5.7.0.e.e.",
"].B.h.y.1.Q.>XXXz.I ! Z n N W R I %.5 * 2 g y C J g._.d.f.x.$.[ R.~.%.b v v N Z N ; k 1.u.h.&.0 ( /.).XXQ.{ !.x.i.-.u.O.1.h.B.B.",
"s.N.v.z.m.:X;X).a.P I M e M E E P $.T Z r ..q t u I B.g.~.9.1..Xf.h.$.N t = i U C Z l 9.p.v.q.j 8 ] R.Q.(.{ [ 1.1.x.%.>.q.N.n.x.",
"..3.0.O.@.$.&.$.<.q.w.O.o.$.>.<.&.8.O.$.$.3.@.=.+.@.3.7.e.w.8.q.<.8.w.3.3.O.@...2.3.3.7.3.8.3.>.@.9.1.$.&.<.i.9.<.<.&.<.&.0.8.<.",
"Z y.j : 4 D G m (.Q.O.U ! D $.P D Y Z J T N T 8.%.x -.3.N.B.y.u.v.u.[.n.O.Z U u 3.x.s.p.P z d j @.N.^.J U h B ] D ; 4 4 8 %.d n ",
") -.z V B G F V _ / $.k W T z.u F Y R W N m D @.%.-.y.w.v.d.j.].<X].{.N.g r t - <.y.y.v.z z z x 1.v.R.R H x F { R 4 A F B x y m ",
"9.w.7.<.@.<.q.<.&.$.3.8.<.9.w.8.q.8.9.<.@.@.@.2.3.3.8.7.3.3.t.t.e.F.F.w.3.>.<.O.7.3.7.w.8.8.w.e.w.w.q.8.3.0.<.<.&.$.1.<.X.3.3.<.",
"V.x.x.w.0.n.I.P.e.s.j.B.[.[.j.B.e.A.[.g.q.8.-.u.v.s.s.y.z 3.a.%.v.t.M.B.B.C.i.z.x.1.w.c p.y.F.N.v.[.x.N.x.C.z.<.P z %.3.y.v.A.#X",
"B.[.2XM.J.].#X%X8.^.{.B.k..X{.T.z.u.^.|.x.<.d.h.d.l.j.I g.>.c P k.q.x.`.<Xk.d.g.k.B.0.u.h.L e.<X{.2X].B.`._.x.1.E E ;.q.g.B.[.k.",
"q.e.m.7.D.K.P.*XD.c.m.e.m.m.c.z.D.8.9.q.w.2.9.q.c.q.>.<.q.2.>.<.<.2.3.e.H.q.q.q.q.w.D.q.0.@.S.P.M.M.m.m.K.q.F.7.q.<.@.7.m.t.t.e.",
"d o.j._.U P h.B.b.z.e.s.z.e.e.g.g.'.g.P d.d.8.l 0 j <.1.E k.j.I H u U w.w.q.I.G.m.v.N.Z.i.x.M.z.7.y.P -.w.8.1.$.X.X.$.&.q.0.I P ",
"T 1.Y.W.] R.Y.R.).B.V.l.g.y.s./._ ).+X[ '  .%.P M n z P ' [ D F [ ` F $.M.A.A.q.A.{.{._.k.k.k._.c.E.f.! 1.&.z l z %.%.-.,.$.D ] ",
"j >.y.g.j.h.u.u.B.z.H.z.x.z.0.k.g.k.k.u.I P @.9.-.P $.1.E k k P P P i @.t.M.M.F.P.n.V.x.M.x.1.V.F.B.s.y.e.o.X.<.1.1.1.&.O.o.k P "
};
